svgs/light/passport.svg

<svg xmlns="http://www.w3.org/2000/svg" viewBox="0 0 448 512"><!-- Font Awesome Pro 6.0.0-alpha2 by @fontawesome - https://fontawesome.com License - https://fontawesome.com/license (Commercial License) --><path d="M336 384H112C103.25 384 96 391.25 96 400S103.25 416 112 416H336C344.75 416 352 408.75 352 400S344.75 384 336 384ZM224 64C153.25 64 96 121.25 96 192S153.25 320 224 320S352 262.75 352 192S294.75 64 224 64ZM129.625 208H168.75C170.25 235 175.25 259.375 182.875 278.375C155.25 265.125 134.875 239.25 129.625 208ZM168.75 176H129.625C134.875 144.75 155.25 118.875 182.875 105.625C175.25 124.625 170.25 149 168.75 176ZM224 286.75C216.25 279.25 203.25 252.25 200.625 208H247.375C244.75 252.25 231.75 279.25 224 286.75ZM200.5 176C203.25 131.75 216.25 104.75 224 97.25C231.75 104.75 244.75 131.75 247.375 176H200.5ZM265.125 278.375C272.75 259.375 277.75 235 279.25 208H318.375C313.125 239.25 292.75 265.125 265.125 278.375ZM279.25 176C277.75 149 272.75 124.625 265.125 105.625C292.75 118.875 313.125 144.75 318.375 176H279.25ZM384 0H64C28.654 0 0 28.652 0 64V448C0 483.344 28.654 512 64 512H384C419.199 512 448 483.199 448 448V64C448 28.797 419.199 0 384 0ZM416 448C416 465.672 401.674 480 384 480H64C46.4 480 32 465.602 32 448V64C32 46.398 46.4 32 64 32H384C401.674 32 416 46.328 416 64V448Z"/></svg>

<svg xmlns="http://www.w3.org/2000/svg" viewBox="0 0 448 512"><!--! Font Awesome Pro 6.3.0 by @fontawesome - https://fontawesome.com License - https://fontawesome.com/license (Commercial License) Copyright 2023 Fonticons, Inc. --><path d="M336 384h-224C103.3 384 96 391.3 96 400S103.3 416 112 416h224c8.75 0 16-7.25 16-16S344.8 384 336 384zM224 64C153.3 64 96 121.3 96 192s57.25 128 128 128s128-57.25 128-128S294.8 64 224 64zM129.6 208h39.13c1.5 27 6.5 51.38 14.12 70.38C155.3 265.1 134.9 239.3 129.6 208zM168.8 176H129.6c5.25-31.25 25.62-57.13 53.25-70.38C175.3 124.6 170.3 149 168.8 176zM224 286.8C216.3 279.3 203.2 252.3 200.5 208h46.84C244.8 252.3 231.8 279.3 224 286.8zM200.6 176C203.3 131.8 216.3 104.8 224 97.25C231.8 104.8 244.8 131.8 247.5 176H200.6zM265.1 278.4C272.8 259.4 277.8 235 279.3 208h39.13C313.1 239.3 292.8 265.1 265.1 278.4zM279.3 176c-1.5-27-6.5-51.38-14.12-70.38c27.62 13.25 48 39.13 53.25 70.38H279.3zM384 0H64C28.65 0 0 28.65 0 64v384c0 35.34 28.65 64 64 64h320c35.2 0 64-28.8 64-64V64C448 28.8 419.2 0 384 0zM416 448c0 17.67-14.33 32-32 32H64c-17.6 0-32-14.4-32-32V64c0-17.6 14.4-32 32-32h320c17.67 0 32 14.33 32 32V448z"/></svg>
